remix/Design/scissors-2-line.svg

<svg viewBox="0 0 24 24" fill="currentColor" xmlns="http://www.w3.org/2000/svg"><path d="M12 13.4108L9.44618 15.9646C9.79807 16.5601 10 17.2548 10 17.9966C10 20.2057 8.20914 21.9966 6 21.9966C3.79086 21.9966 2 20.2057 2 17.9966C2 15.7874 3.79086 13.9966 6 13.9966C6.74181 13.9966 7.43645 14.1985 8.03197 14.5504L10.5858 11.9966L4.56497 5.97577C3.78392 5.19472 3.78392 3.92839 4.56497 3.14734L12 10.5824L19.435 3.14734C20.2161 3.92839 20.2161 5.19472 19.435 5.97577L13.4142 11.9966L15.968 14.5504C16.5635 14.1985 17.2582 13.9966 18 13.9966C20.2091 13.9966 22 15.7874 22 17.9966C22 20.2057 20.2091 21.9966 18 21.9966C15.7909 21.9966 14 20.2057 14 17.9966C14 17.2548 14.2019 16.5601 14.5538 15.9646L12 13.4108ZM6 19.9966C7.10457 19.9966 8 19.1012 8 17.9966C8 16.892 7.10457 15.9966 6 15.9966C4.89543 15.9966 4 16.892 4 17.9966C4 19.1012 4.89543 19.9966 6 19.9966ZM18 19.9966C19.1046 19.9966 20 19.1012 20 17.9966C20 16.892 19.1046 15.9966 18 15.9966C16.8954 15.9966 16 16.892 16 17.9966C16 19.1012 16.8954 19.9966 18 19.9966Z"/></svg>

<svg viewBox="0 0 24 24" xmlns="http://www.w3.org/2000/svg"><path fill="none" d="M0 0h24v24H0Z"/><path d="M12 13.414l-2.56 2.55v0c1.12 1.9.48 4.35-1.42 5.47 -1.91 1.12-4.36.48-5.48-1.42 -1.13-1.91-.49-4.36 1.41-5.48 1.25-.74 2.8-.74 4.06-.001l2.55-2.56 -6.03-6.02v0c-.79-.79-.79-2.05-.01-2.83 0-.01 0-.01 0-.01l7.43 7.43 7.43-7.44V3.1c.78.78.78 2.04 0 2.828l-6.02 6.02 2.55 2.55v0c1.9-1.13 4.35-.49 5.47 1.41s.48 4.35-1.42 5.47c-1.91 1.12-4.36.48-5.48-1.42 -.74-1.26-.74-2.81-.001-4.07l-2.56-2.56ZM6 20v0c1.1 0 2-.9 2-2 0-1.11-.9-2-2-2v0c-1.11 0-2 .89-2 2 0 1.1.89 2 2 2Zm12 0v0c1.1 0 2-.9 2-2 0-1.11-.9-2-2-2v0c-1.11 0-2 .89-2 2 0 1.1.89 2 2 2Z"/></svg>
